!!!COM: Palestrina, Giovanni Perluigi da
!!!OPR: Missa Dilexi quoniam
!!!OMD: Credo
!!!OTL: First Section
**kern	**kern	**kern	**kern	**kern
*Ibass	*Itenor	*Itenor	*Icalto	*Icant
!Bassus	!Tenor 2	!Tenor 1	!Altus	!Cantus
*clefF4	*clefGv2	*clefGv2	*clefG2	*clefG2
*k[]	*k[]	*k[]	*k[]	*k[]
*C:ion	*C:ion	*C:ion	*C:ion	*C:ion
*M4/2	*M4/2	*M4/2	*M4/2	*M4/2
=1	=1	=1	=1	=1
0r	0r	1d	0r	0r
.	.	2d	.	.
.	.	2d	.	.
=2	=2	=2	=2	=2
0r	1r	1g	0r	0r
.	2r	2f	.	.
.	2G	[2g	.	.
=3	=3	=3	=3	=3
0r	2G	4g]	0r	0r
.	.	4f	.	.
.	2G	4e	.	.
.	.	4d	.	.
.	1c	1e	.	.
=4	=4	=4	=4	=4
0r	2B	2d	1g	0r
.	2.c	2.e	.	.
.	.	.	2g	.
.	4B	4f	.	.
.	4A	[2g	2g	.
.	4G	.	.	.
=5	=5	=5	=5	=5
0r	1A	2g]	1cc	0r
.	.	2f#	.	.
.	2G	4g	2b	.
.	.	4f	.	.
.	4c	4e	[2cc	.
.	4d	4d	.	.
=6	=6	=6	=6	=6
0r	4e	4c	4cc]	1r
.	4f	4d	4b	.
.	2g	2e	4a	.
.	.	.	4g	.
.	2g	1d	1a	1dd
.	2f#	.	.	.
=7	=7	=7	=7	=7
1G	1g	2d	2g	2dd
.	.	2g	2b	2dd
2G	2d	2g	2b	2.gg
2G	2d	2g	2b	.
.	.	.	.	4ff
=8	=8	=8	=8	=8
1c	2e	1g	1cc	4ee
.	.	.	.	4dd
.	2c	.	.	2ee
2B	2d	2g	2g	2dd
2c	[2e	2e	2g	2cc
=9	=9	=9	=9	=9
4c	2e]	1.c	4a	0cc
4B	.	.	4g	.
4A	2c	.	1g	.
4G	.	.	.	.
1A	1c	.	.	.
.	.	2A	2f#	.
=10	=10	=10	=10	=10
1G	1d	2r	0g	0b
.	.	2.d	.	.
2.G	1r	.	.	.
.	.	4d	.	.
.	.	2e	.	.
4G	.	.	.	.
=11	=11	=11	=11	=11
2A	0r	2c	1r	0r
2F	.	2.d	.	.
1G	.	.	2.g	.
.	.	4c	.	.
.	.	2B	.	.
.	.	.	4g	.
=12	=12	=12	=12	=12
2.F	1r	4A	2a	0r
.	.	8B	.	.
.	.	8c	.	.
.	.	1d	2f	.
8E	.	.	.	.
8D	.	.	.	.
2E	2.G	.	1g	.
2E	.	2c#	.	.
.	4G	.	.	.
=13	=13	=13	=13	=13
1D	2A	1d	2f	2.dd
.	2B	.	2f	.
.	.	.	.	4dd
1r	2.c	1r	2e	1ee
.	.	.	[2g	.
.	4d	.	.	.
=14	=14	=14	=14	=14
0r	2e	0r	4g]	2cc
.	.	.	4g	.
.	2f	.	2a	2.dd
.	[1d	.	2f#	.
.	.	.	.	4cc
.	.	.	[2g	4b
.	.	.	.	8a
.	.	.	.	8g
=15	=15	=15	=15	=15
0r	1d]	0r	2g]	2a
.	.	.	2f#	2a
.	2r	.	[1g	1b
.	[2G	.	.	.
=16	=16	=16	=16	=16
2.C	2G]	2.e	0g]	0r
.	2G	.	.	.
4C	.	4e	.	.
2C	2.c	2e	.	.
2C	.	2e	.	.
.	4B	.	.	.
=17	=17	=17	=17	=17
2F	2A	2d	1r	0r
2E	2G	2c	.	.
2F	2A	2d	2r	.
[2G	[2B	2e	[2g	.
=18	=18	=18	=18	=18
2G]	2B]	2d	2g]	0r
2E	2c	2.c	2g	.
1D	1d	.	1f	.
.	.	8B	.	.
.	.	8A	.	.
.	.	2B	.	.
=19	=19	=19	=19	=19
0C	1G	2c	2e	2r
.	.	2.c	2.g	2.ee
.	1r	.	.	.
.	.	4c	4g	4ee
.	.	2c	2g	2ee
=20	=20	=20	=20	=20
0r	0r	2f	2a	2dd
.	.	2e	2g	2cc
.	.	2f	2a	2dd
.	.	[2g	[2b	2ee
=21	=21	=21	=21	=21
0r	1r	4g]	2b]	2dd
.	.	4f	.	.
.	.	2e	1g	1cc
.	[1G	2d	.	.
.	.	2d	2g	2b
=22	=22	=22	=22	=22
1.C	2G]	2c	2.e	1cc
.	2G	1e	.	.
.	.	.	4f	.
.	1c	.	1g	2r
2C	.	2e	.	[2cc
=23	=23	=23	=23	=23
2F	1A	2c	0r	2cc]
2F	.	2c	.	2cc
1D	1B	1d	.	2ff
.	.	.	.	2ff
=24	=24	=24	=24	=24
1C	1c	1e	1.g	1ee
1r	2r	1r	.	2dd
.	[2c	.	2g	[2ee
=25	=25	=25	=25	=25
0r	2c]	0r	1cc	2ee]
.	2c	.	.	2ee
.	1f	.	2a	2dd
.	.	.	2a	2cc
=26	=26	=26	=26	=26
1.G	2d	0r	2.g	4b
.	.	.	.	4a
.	2d	.	.	4g
.	.	.	4f	4a
.	2.g	.	2e	4b
.	.	.	.	4cc
2G	.	.	2d	4dd
.	4g	.	.	4b
=27	=27	=27	=27	=27
1c	1g	0r	4e	4cc
.	.	.	4d	4dd
.	.	.	4c	2ee
.	.	.	4d	.
2A	1r	.	4e	2cc
.	.	.	4f#	.
2G	.	.	[2g	2b
=28	=28	=28	=28	=28
2c	2r	1r	4g]	1a
.	.	.	8f#	.
.	.	.	8e	.
2d	2d	.	2f#	.
1G	2d	2r	1g	2r
.	2d	2G	.	2b
=29	=29	=29	=29	=29
0r	4e	2G	0r	2b
.	4d	.	.	.
.	1g	2G	.	2b
.	.	1A	.	1cc
.	2f#	.	.	.
=30	=30	=30	=30	=30
2r	1g	2G	2r	0b
2E	.	2B	2g	.
2E	1r	2e	2g	.
2E	.	2e	2g	.
=31	=31	=31	=31	=31
2F	1r	2c	2a	1r
2D	.	2d	2f	.
2E	2r	1B	2g	2r
[2G	[2d	.	[2g	[2b
=32	=32	=32	=32	=32
2G]	2d]	0r	2g]	2b]
2G	2e	.	2g	2b
1A	1c	.	2e	1cc
.	.	.	2f#	.
=33	=33	=33	=33	=33
1.G	2d	2r	[0g	1.b
.	2B	2G	.	.
.	2d	2B	.	.
2C	2e	2c	.	2g
=34	=34	=34	=34	=34
2.G	2d	4d	1g]	2.b
.	.	4B	.	.
.	2G	2e	.	.
4A	.	.	.	4cc
2B	1g	2d	2r	2dd
[2c	.	2g	2c	[2ee
=35	=35	=35	=35	=35
4c]	0r	2c	2e	4ee]
4B	.	.	.	4dd
2A	.	2c	2f#	1cc
1G	.	1d	1g	.
.	.	.	.	2b
=36	=36	=36	=36	=36
2C	2r	1c	2e	1cc
1c	1e	.	1g	.
.	.	1r	.	1r
2c	2e	.	2g	.
=37	=37	=37	=37	=37
2A	2f#	0r	2a	1r
2G	2g	.	2b	.
2.c	2.e	.	1g	2r
.	.	.	.	[2cc
4B	4d	.	.	.
=38	=38	=38	=38	=38
4A	4c	0r	2.a	2cc]
4G	4B	.	.	.
2.A	1c	.	.	2cc
.	.	.	4g	.
.	.	.	4f	2a
4G	.	.	4e	.
2E	2B	.	[2e	2g
=39	=39	=39	=39	=39
1F	2.A	1r	2e]	1a
.	.	.	2d	.
.	4B	.	.	.
[1C	4c	2r	2e	2g
.	4d	.	.	.
.	4e	[2c	[2cc	[2ee
.	4f	.	.	.
=40	=40	=40	=40	=40
1C]	1g	2c]	2cc]	2ee]
.	.	2c	2cc	2ee
1r	1r	2d	2a	2ff
.	.	2e	2g	2gg
=41	=41	=41	=41	=41
0r	0r	2c	2.cc	2.ee
.	.	2A	.	.
.	.	.	4b	4dd
.	.	2.f	4a	4cc
.	.	.	4g	4b
.	.	.	[2a	2cc
.	.	4e	.	.
=42	=42	=42	=42	=42
0r	1r	2d	2a]	2dd
.	.	2c#	2e	1ee
.	[1a	1d	1f	.
.	.	.	.	2dd
=43	=43	=43	=43	=43
1.A	1a]	2c#	2e	2ee
.	.	1c#	1a	1ee
.	1e	.	.	.
2A	.	2c#	2a	2ee
=44	=44	=44	=44	=44
2D	2f#	1d	2a	2dd
2D	2f#	.	2a	2dd
1G	2g	2d	1b-	1dd
.	[2d	2G	.	.
=45	=45	=45	=45	=45
2F#	4d]	2A	2a	1.dd
.	4c	.	.	.
2G	2B-	2d	1g	.
1D	1A	1d	.	.
.	.	.	2f#	2a
=46	=46	=46	=46	=46
2r	1G	2r	1g	1b
2G	.	2B	.	.
2E	1r	2c	1r	1r
2F	.	2A	.	.
=47	=47	=47	=47	=47
1G	0r	2B	1r	0r
.	.	2.d	.	.
2F	.	.	2r	.
.	.	4c	.	.
2E	.	[2c	2e	.
=48	=48	=48	=48	=48
1D	1r	2c]	2f	1r
.	.	2B	2d	.
1C	2r	1c	4e	2r
.	.	.	4f	.
.	2e	.	4g	2ee
.	.	.	4e	.
=49	=49	=49	=49	=49
0r	2f	0r	4a	2cc
.	.	.	4g	.
.	2d	.	4a	2dd
.	.	.	4b	.
.	1c	.	2.cc	1ee
.	.	.	8b	.
.	.	.	8a	.
=50	=50	=50	=50	=50
0r	2G	0r	2b	2dd
.	2A	.	2.a	2cc
.	1e	.	.	2b
.	.	.	4g	.
.	.	.	[2g	4a
.	.	.	.	4g
=51	=51	=51	=51	=51
1r	1d	1r	2g]	1a
.	.	.	2f#	.
1G	1r	2r	[1g	1b
.	.	2B	.	.
=52	=52	=52	=52	=52
2E	0r	2c	2g]	2r
2F	.	2A	4f	1dd
.	.	.	4e	.
1G	.	2B	1d	.
.	.	[2d	.	2b
=53	=53	=53	=53	=53
2F	0r	2d]	2r	1cc
2E	.	1c	2e	.
1D	.	.	2f	1dd
.	.	2B	2d	.
=54	=54	=54	=54	=54
1C	2r	1c	2.e	2.g
.	2g	.	.	.
.	.	.	4f	4a
1r	2e	1r	2g	4b
.	.	.	.	4cc
.	2f	.	2a	[2dd
=55	=55	=55	=55	=55
0r	1g	0r	2.b	2dd]
.	.	.	.	2ee
.	.	.	4g	.
.	2f	.	4a	[1ff
.	.	.	4b	.
.	2e	.	[2cc	.
=56	=56	=56	=56	=56
0r	1d	1r	2cc]	1ff]
.	.	.	2b	.
.	1c	1g	1cc	2.ee
.	.	.	.	4ff
=57	=57	=57	=57	=57
1c	2r	1e	1r	1gg
.	2g	.	.	.
1A	2f	4c	1cc	1r
.	.	4d	.	.
.	[2e	4e	.	.
.	.	4f	.	.
=58	=58	=58	=58	=58
2.G	2e]	1g	1b	0r
.	2.d	.	.	.
4F	.	.	.	.
2E	.	1c	2g	.
.	4c	.	.	.
2F	[2c	.	2a	.
=59	=59	=59	=59	=59
1D	2c]	1d	1f	1r
.	2B	.	.	.
1C	1c	2G	2e	1gg
.	.	2g	4c	.
.	.	.	4d	.
=60	=60	=60	=60	=60
0r	0r	4c	4e	1ee
.	.	4d	4f	.
.	.	4e	4g	.
.	.	4f	4a	.
.	.	2g	2b	2.dd
.	.	2d	[2a	.
.	.	.	.	4cc
=61	=61	=61	=61	=61
0r	0r	2e	4a]	2b
.	.	.	4g	.
.	.	2c	1g	2cc
.	.	1d	.	1a
.	.	.	2f#	.
=62	=62	=62	=62	=62
0r	0r	1G	1g	1b
.	.	1r	1r	1r
=63	=63	=63	=63	=63
0C	0e	0c	0g	0ee
=64	=64	=64	=64	=64
1C	1e	1c	1g	1ee
1G	1g	1B	1b	1dd
=65	=65	=65	=65	=65
1F	1a	1A	1cc	1ff
1C	1g	1c	1cc	1ee
=66	=66	=66	=66	=66
1G	2g	2d	2b	2dd
.	2G	2g	2b	2dd
1r	1c	1g	1cc	1ee
=67	=67	=67	=67	=67
0r	2G	2g	2b	2dd
.	2A	2e	2a	2cc
.	1d	1f#	1a	1dd
=68	=68	=68	=68	=68
2r	2c	2g	1cc	1ee
1c	1e	1g	.	.
.	.	.	1r	1r
2B	2d	2g	.	.
=69	=69	=69	=69	=69
2A	2f	2c	1r	0r
2G	2e	2B	.	.
2F	2d	2A	2r	.
2F	2d	2A	[2a	.
=70	=70	=70	=70	=70
1E	1e	1B	2a]	2r
.	.	.	2g	1ee
1r	1r	1r	2cc	.
.	.	.	2b	2dd
=71	=71	=71	=71	=71
0r	0r	1r	2.a	2ff
.	.	.	.	2ee
.	.	.	4g	.
.	.	[1d	2f	2dd
.	.	.	2f	2dd
=72	=72	=72	=72	=72
0A	1r	2d]	1e	1ee
.	.	4c#	.	.
.	.	4B	.	.
.	1e	1c#	1a	1ee
=73	=73	=73	=73	=73
1D	1f#	1d	1a	1dd
1G	1g	1B	1d	1dd
=74	=74	=74	=74	=74
1C	1e	1c	1g	1ee
1C	1e	1c	1g	1cc
=75	=75	=75	=75	=75
[0G	[0d	[0B	[0g	[0dd
=76	=76	=76	=76	=76
0G]	0d]	0B]	0g]	0dd]
*-	*-	*-	*-	*-
!!!CDT: 1525/^1526/-1594/2/2
!!!OCY: Italia
!!!AGN: Mass (Parody)
!!!AST: renaissance, vocal
!!!ASW: Motet (Maffoni)
!!!PWK: Masses, Book 6
!!!RNB: Cadence finals: G,A
!!!YOR: Le Opere Complete, v. 21, p. 105
!!!YOO: Rome, Italy: Fratelli Scalera
!!!END: 1992//
!!!EED: John Miller
!!!YEC: Copyright 2000, John Miller
!!!YEN: United States of America
!!!YEM: Rights to all derivative electronic formats reserved.
!!!YEM: Refer to licensing agreement for further details.
!!!YEM: This file must be accompanied by the licensing agreement.
!!!YEM: A copy of the licensing agreement may be found at http://www.music-cog.ohio-state.edu/HumdrumDatabases/Palestrina/license.txt
!!!EMD: converted to Humdrum by Bret Aarden
